X: 16468
T: Hag's Dance, The
R: jig
M: 6/8
K: Dmajor
|:A|d3 A2 d|B>GB g2 e|c3 A2 c|A>ce g>Bc|
d3 A2 d|B>GB g2 e|c>ea g>ec|A>ec d2:|
|:f|a3 f2 A|d>fa a>fd|g3 e2 c|A>ce e>fg|
a3 f2 A|d>fa a>fd|c>ea g>ec|A>ec d2:|
|:A|d3 A2 d|f>df a2 d|c3 A2 c|A>ce g>Bc|
d3 A2 d|f>df a2 d|c>ea g>ec|A>ec d2:|
|:f|a>^ga f2 A|d>fa a>fd|c>aa d>aa|e>gf e>cA|
a>^ga f2 A|d>fa a>fd|c>ea g>ec|A>ec d2:|

